static/covid/shield.svg

<svg width="46" height="56" fill="none" xmlns="http://www.w3.org/2000/svg"><path d="M.92 5.68v23.08c0 8.2 3.77 16.02 10.37 20.89 3.45 2.55 7.37 4.46 11.71 5.77 4.34-1.31 8.25-3.22 11.71-5.77 6.6-4.87 10.37-12.69 10.37-20.89V5.68C30.36 1.54 15.64 1.54.92 5.68z" fill="#3372FF"/><path d="M.92 3.68v23.08c0 8.2 3.77 16.02 10.37 20.89 3.45 2.55 7.37 4.46 11.71 5.77 4.34-1.31 8.25-3.22 11.71-5.77 6.6-4.87 10.37-12.69 10.37-20.89V3.68C30.36-.46 15.64-.46.92 3.68z" fill="#319EFF"/><path d="M35.2 18.71h-8.57v-8.57h-7.25v8.57H10.8v7.26h8.58v8.57h7.25v-8.57h8.57v-7.26z" fill="#fff"/></svg>

<svg width="46" height="56" viewBox="0 0 46 56" fill="none" xmlns="http://www.w3.org/2000/svg">
<path d="M0.919998 5.68V28.76C0.919998 36.96 4.69 44.78 11.29 49.65C14.74 52.2 18.66 54.11 23 55.42C27.34 54.11 31.25 52.2 34.71 49.65C41.31 44.78 45.08 36.96 45.08 28.76V5.68C30.36 1.54 15.64 1.54 0.919998 5.68Z" fill="#3372FF"/>
<path d="M0.919998 3.68V26.76C0.919998 34.96 4.69 42.78 11.29 47.65C14.74 50.2 18.66 52.11 23 53.42C27.34 52.11 31.25 50.2 34.71 47.65C41.31 42.78 45.08 34.96 45.08 26.76V3.68C30.36 -0.459999 15.64 -0.459999 0.919998 3.68Z" fill="#319EFF"/>
<path d="M35.2 18.71H26.63V10.14H19.38V18.71H10.8V25.97H19.38V34.54H26.63V25.97H35.2V18.71Z" fill="white"/>
</svg>
